X:10370
T:Marquis Wellinton. JC.055
M:6/8
L:1/8
Q:110
S:John Clare,Poet,Helpston. (1793-1864)
R:March
O:England
A:Northamptonshire
N:See tune 185.
Z:P Headford
K:D
a/g/|f2d {e}dcd|e2AA2c|d2ef2g|a2ba2g|!
f2d {e}dcd|e2"sic"A2Ac|d2ef2g|e2cd2:|!
a|g2a gab|a2gf2a|b2a gab|a2gf2a|!
bag agf|gfe fed|cde fed|cde Aag|!
f2d {e}dcd|e2AA2c|d2ef2g|a2ba2g|!
f2d {e}dcd|e2AA2c|d2ef2g|e2dd2|]
